src/assets/cards/6D.svg

<svg clip-rule="evenodd" fill-rule="evenodd" stroke-linejoin="round" stroke-miterlimit="2" viewBox="0 0 934 1300" xmlns="http://www.w3.org/2000/svg"><g fill="#d40000" fill-rule="nonzero"><path d="m142.286 239.331c41.334-40.342 68.48-84.322 94.446-126.621 22.768 46.539 55.433 87.258 90.77 126.621-37.808 39.038-67.099 80.773-90.657 124.653-26.117-44.972-53.614-85.715-94.559-124.653z"/><path d="m142.286 651.389c41.334-40.346 68.48-84.327 94.446-126.626 22.768 46.552 55.433 87.258 90.77 126.626-37.808 39.035-67.099 80.776-90.657 124.657-26.117-44.983-53.614-85.715-94.559-124.657z"/><path d="m142.286 1062.22c41.334-40.34 68.48-84.326 94.446-126.625 22.768 46.543 55.433 87.265 90.77 126.625-37.808 39.03-67.099 80.77-90.657 124.65-26.117-44.98-53.614-85.71-94.559-124.65z"/><path d="m607.001 239.331c41.333-40.342 68.479-84.322 94.445-126.621 22.768 46.539 55.446 87.258 90.783 126.621-37.808 39.038-67.112 80.773-90.67 124.653-26.117-44.972-53.601-85.715-94.558-124.653z"/><path d="m607.001 651.389c41.333-40.346 68.479-84.327 94.445-126.626 22.768 46.552 55.446 87.258 90.783 126.626-37.808 39.035-67.112 80.776-90.67 124.657-26.117-44.983-53.601-85.715-94.558-124.657z"/><path d="m607.001 1062.22c41.333-40.34 68.479-84.326 94.445-126.625 22.768 46.543 55.446 87.265 90.783 126.625-37.808 39.03-67.112 80.77-90.67 124.65-26.117-44.98-53.601-85.71-94.558-124.65z"/><path d="m822.574 1033.01c16.934-16.52 28.061-34.542 38.699-51.868 9.32 19.068 22.705 35.748 37.181 51.868-15.492 15.99-27.485 33.09-37.144 51.07-10.7-18.43-21.952-35.12-38.736-51.07z"/><path d="m35.849 258.599c16.934-16.52 28.048-34.534 38.686-51.87 9.333 19.067 22.718 35.751 37.194 51.87-15.492 15.994-27.497 33.092-37.144 51.068-10.7-18.428-21.965-35.111-38.736-51.068z"/><path d="m35.936 150.393c-1.693-11.441-1.668-41.02-.276-49.751 4.29-26.794 14.727-39.038 32.189-43.064 16.947-3.889 40.781.451 46.012 22.843l-14.187.263c-7.677-15.141-27.071-11.089-37.984-4.503-8.731 5.256-12.67 27.158-10.977 28.513-.012 0 16.484-11.992 29.479-11.102 27.786 2.835 39.239 26.481 38.273 48.822-.878 26.87-9.559 48.346-39.013 49.776-27.986-1.054-40.819-16.044-43.516-41.797zm69.044-7.1c.163-18.654-8.467-32.603-24.788-34.133-16.307-1.543-32.765 14.087-31.624 33.091 1.142 19.068 8.656 35.137 28.438 35.037 21.275-.088 27.874-20.724 27.974-33.995z"/><path d="m897.388 1149.61c1.706 11.44 1.681 41.02.276 49.75-4.278 26.79-14.715 39.04-32.176 43.06-16.948 3.9-40.782-.44-46.013-22.84l14.188-.27c7.677 15.14 27.07 11.09 37.984 4.51 8.718-5.26 12.67-27.16 10.976-28.51.013 0-16.483 11.99-29.479 11.1-27.785-2.84-39.238-26.48-38.272-48.83.878-26.87 9.558-48.34 39-49.77 27.998 1.05 40.831 16.04 43.516 41.8zm-69.044 7.1c-.15 18.65 8.48 32.59 24.8 34.13 16.308 1.54 32.766-14.09 31.624-33.09-1.141-19.07-8.668-35.13-28.45-35.04-21.275.09-27.861 20.73-27.974 34z"/></g></svg>

<?xml version="1.0" encoding="UTF-8" standalone="no"?>
<!DOCTYPE svg PUBLIC "-//W3C//DTD SVG 1.1//EN" "http://www.w3.org/Graphics/SVG/1.1/DTD/svg11.dtd">
<svg width="100%" height="100%" viewBox="0 0 934 1300" version="1.1" xmlns="http://www.w3.org/2000/svg" xmlns:xlink="http://www.w3.org/1999/xlink" xml:space="preserve" xmlns:serif="http://www.serif.com/" style="fill-rule:evenodd;clip-rule:evenodd;stroke-linejoin:round;stroke-miterlimit:2;">
    <g id="_6D" serif:id="6D">
        <g id="path3429">
            <path d="M142.286,239.331C183.62,198.989 210.766,155.009 236.732,112.71C259.5,159.249 292.165,199.968 327.502,239.331C289.694,278.369 260.403,320.104 236.845,363.984C210.728,319.012 183.231,278.269 142.286,239.331Z" style="fill:rgb(212,0,0);fill-rule:nonzero;"/>
        </g>
        <g id="path3431">
            <path d="M142.286,651.389C183.62,611.043 210.766,567.062 236.732,524.763C259.5,571.315 292.165,612.021 327.502,651.389C289.694,690.424 260.403,732.165 236.845,776.046C210.728,731.063 183.231,690.331 142.286,651.389Z" style="fill:rgb(212,0,0);fill-rule:nonzero;"/>
        </g>
        <g id="path3433">
            <path d="M142.286,1062.22C183.62,1021.88 210.766,977.894 236.732,935.595C259.5,982.138 292.165,1022.86 327.502,1062.22C289.694,1101.25 260.403,1142.99 236.845,1186.87C210.728,1141.89 183.231,1101.16 142.286,1062.22Z" style="fill:rgb(212,0,0);fill-rule:nonzero;"/>
        </g>
        <g id="path3439">
            <path d="M607.001,239.331C648.334,198.989 675.48,155.009 701.446,112.71C724.214,159.249 756.892,199.968 792.229,239.331C754.421,278.369 725.117,320.104 701.559,363.984C675.442,319.012 647.958,278.269 607.001,239.331Z" style="fill:rgb(212,0,0);fill-rule:nonzero;"/>
        </g>
        <g id="path3441">
            <path d="M607.001,651.389C648.334,611.043 675.48,567.062 701.446,524.763C724.214,571.315 756.892,612.021 792.229,651.389C754.421,690.424 725.117,732.165 701.559,776.046C675.442,731.063 647.958,690.331 607.001,651.389Z" style="fill:rgb(212,0,0);fill-rule:nonzero;"/>
        </g>
        <g id="path3443">
            <path d="M607.001,1062.22C648.334,1021.88 675.48,977.894 701.446,935.595C724.214,982.138 756.892,1022.86 792.229,1062.22C754.421,1101.25 725.117,1142.99 701.559,1186.87C675.442,1141.89 647.958,1101.16 607.001,1062.22Z" style="fill:rgb(212,0,0);fill-rule:nonzero;"/>
        </g>
        <g id="path3722">
            <path d="M822.574,1033.01C839.508,1016.49 850.635,998.468 861.273,981.142C870.593,1000.21 883.978,1016.89 898.454,1033.01C882.962,1049 870.969,1066.1 861.31,1084.08C850.61,1065.65 839.358,1048.96 822.574,1033.01Z" style="fill:rgb(212,0,0);fill-rule:nonzero;"/>
        </g>
        <g id="path3724">
            <path d="M35.849,258.599C52.783,242.079 63.897,224.065 74.535,206.729C83.868,225.796 97.253,242.48 111.729,258.599C96.237,274.593 84.232,291.691 74.585,309.667C63.885,291.239 52.62,274.556 35.849,258.599Z" style="fill:rgb(212,0,0);fill-rule:nonzero;"/>
        </g>
        <g id="path7108-3">
            <path d="M35.936,150.393C34.243,138.952 34.268,109.373 35.66,100.642C39.95,73.848 50.387,61.604 67.849,57.578C84.796,53.689 108.63,58.029 113.861,80.421L99.674,80.684C91.997,65.543 72.603,69.595 61.69,76.181C52.959,81.437 49.02,103.339 50.713,104.694C50.701,104.694 67.197,92.702 80.192,93.592C107.978,96.427 119.431,120.073 118.465,142.414C117.587,169.284 108.906,190.76 79.452,192.19C51.466,191.136 38.633,176.146 35.936,150.393ZM104.98,143.293C105.143,124.639 96.513,110.69 80.192,109.16C63.885,107.617 47.427,123.247 48.568,142.251C49.71,161.319 57.224,177.388 77.006,177.288C98.281,177.2 104.88,156.564 104.98,143.293Z" style="fill:rgb(212,0,0);fill-rule:nonzero;"/>
        </g>
        <g id="path7161-9">
            <path d="M897.388,1149.61C899.094,1161.05 899.069,1190.63 897.664,1199.36C893.386,1226.15 882.949,1238.4 865.488,1242.42C848.54,1246.32 824.706,1241.98 819.475,1219.58L833.663,1219.31C841.34,1234.45 860.733,1230.4 871.647,1223.82C880.365,1218.56 884.317,1196.66 882.623,1195.31C882.636,1195.31 866.14,1207.3 853.144,1206.41C825.359,1203.57 813.906,1179.93 814.872,1157.58C815.75,1130.71 824.43,1109.24 853.872,1107.81C881.87,1108.86 894.703,1123.85 897.388,1149.61ZM828.344,1156.71C828.194,1175.36 836.824,1189.3 853.144,1190.84C869.452,1192.38 885.91,1176.75 884.768,1157.75C883.627,1138.68 876.1,1122.62 856.318,1122.71C835.043,1122.8 828.457,1143.44 828.344,1156.71Z" style="fill:rgb(212,0,0);fill-rule:nonzero;"/>
        </g>
    </g>
</svg>
